X: 39191
T: Swinging On The Gate
R: reel
M: 4/4
K: Gmajor
|:Bd|gedB G2AB|cABG AGEG|DGBd g2fg|eaag fdef|
gedB G2AB|cABG AGEG|cABG AGEG|DGGF GABd:|
|:g3a bgaf|gfed B2 AG|EAAB cBAG|(3EFG AB cdef|
g3a bgaf|gfed B2 AB|cABG AGEG|DGGF GABd:|

